svg/kasten-k10.svg

<svg width="85" height="85" viewBox="0 0 85 85" fill="none" xmlns="http://www.w3.org/2000/svg">
<path d="M79.8485 84.9474H5.15151C2.31292 84.9474 0 82.6345 0 79.7959V5.15152C0 2.31292 2.31292 0 5.15151 0H79.8485C82.6871 0 85 2.31292 85 5.15152V79.7959C85 82.6871 82.6871 84.9474 79.8485 84.9474Z" fill="#2600FF"/>
<path d="M22.1305 13.6673C19.0291 13.6673 16.5059 16.1905 16.5059 19.2919V65.4453C16.5059 68.5467 19.0291 71.0699 22.1305 71.0699C25.2319 71.0699 27.7551 68.5467 27.7551 65.4453V19.2919C27.8077 16.1905 25.2845 13.6673 22.1305 13.6673Z" fill="white"/>
<path d="M63.1324 13.6673C61.8183 13.6673 60.6092 14.1404 59.6105 15.034L49.2023 24.496C49.1497 24.5485 49.0972 24.6011 49.0446 24.6537L31.6451 40.4236C31.0143 40.9493 30.3309 41.5801 30.3309 42.4737C30.3309 43.6302 31.1194 44.3135 31.8554 44.8918C32.0131 45.0495 32.2233 45.2072 32.381 45.3123L44.6816 55.9307L59.6105 69.8083C60.7144 70.7545 62.0811 71.2276 63.5004 71.0699C64.9197 70.9122 66.2338 70.2288 67.1275 69.0724C69.0199 66.7069 68.7045 63.1849 66.4441 61.2399L45.7329 42.3686L55.8257 33.222C55.9834 33.1169 56.0885 33.0117 56.1936 32.9066L66.6544 23.3921C68.8622 21.3946 69.125 17.8726 67.18 15.5597C66.2338 14.4558 64.9197 13.7724 63.5004 13.6673C63.3952 13.6673 63.2901 13.6673 63.1324 13.6673Z" fill="white"/>
</svg>

<svg xmlns="http://www.w3.org/2000/svg" width="85" height="85" fill="none" viewBox="0 0 85 85"><path fill="#2600FF" d="M79.849 84.947H5.151A5.16 5.16 0 0 1 0 79.796V5.152A5.16 5.16 0 0 1 5.152 0h74.697A5.16 5.16 0 0 1 85 5.152v74.644a5.126 5.126 0 0 1-5.151 5.151"/><path fill="#fff" d="M22.13 13.667a5.631 5.631 0 0 0-5.624 5.625v46.153a5.631 5.631 0 0 0 5.625 5.625 5.631 5.631 0 0 0 5.624-5.625V19.292c.053-3.102-2.47-5.625-5.624-5.625m41.001 0c-1.314 0-2.523.473-3.521 1.367l-10.409 9.462-.157.158-17.4 15.77c-.63.525-1.314 1.156-1.314 2.05 0 1.156.788 1.84 1.524 2.418.158.157.368.315.526.42l12.3 10.619 14.93 13.877c1.103.946 2.47 1.42 3.89 1.262 1.419-.158 2.733-.841 3.627-1.998 1.892-2.365 1.576-5.887-.684-7.832L45.733 42.369l10.093-9.147a2.31 2.31 0 0 0 .368-.315l10.46-9.515c2.208-1.997 2.471-5.52.526-7.832-.946-1.104-2.26-1.788-3.68-1.893z"/></svg>
